X:191
T:French Warr. JJo4.191
M:C|
L:1/8
B:J.Johnson Choice Collection Vol 4, 1748
Z:vmp.Mike Hicken 2014 www.village-music-project.org.uk
N:* two repeat signs are shown in the original
Q:1/2=70
K:F
fFFF FGAB|cCCC C4|fccc dBBB|AGFE F4 ?
|: agab a2b2|gagf e4|fgfe dfed|cdc=B c4|
fccc d2c2|BcBA Gceg|fccc dBBB|AGFE F4 "*":|

